-----BEGIN PGP MESSAGE-----

jA0ECQMK4djazlyx/Q7/0uoBHV1EaC7MfuWoWuLgomMgqGxz9wzhEUWi4mgbmeEV
rOnRgHVSUCE3+VpwAbmXhhqXAcY3FwlKhEH49BNaX+RytgpKLP+kveDT4PJNH6ep
tzprKX/SPREbPmn5ALkdT4rA0iTAT2BMSZJoS+PpqCgvhE+k8m/EA4JKXuMC59yS
69u3YAUuos33SmoBUemoUO7El/5ugjXmxvDHMeMrvaepVNzhqLO4Ucr3cGR1rW5n
8N6fN9uPMhbESlPFqNf3dxpmQYiJ5D96fJh7/vgM4xYKH77QrGI3fqfDrSWaZjGI
zoM/BKtea9kPoVdNn/aDYjhxRrxDHQaD2crYwsGKdEBQ5qNCY/Tzc35z5274KDvD
gClv8VSzeCPB9kqzX6VoG9qWxQcrDf9eaAlON6nfLFx/4iFg3X+Xl9OjZt5MQHKs
W93drnRJdCYtjY5nh/frDsksmJiBd2D5T8rfeYr93LxNo0mDK9XuhfeG0HBF0ZDF
0slmeQKkOxeT/kR98kP3m4mYvvXEnHO2xw2wF8aNOYVifyDoVcWh56Ilx4PzwGvx
vgDHeXEN5yrzYHx/bxo/NXqNZhVyzPdV6R1cHZHhhxBiueOJG0qGPpuAVkvXqvI+
Qh3mHiZPsa+krydEnZ+PF0Fd4z2IqYKR5/4BNQxlZ7Jhe5qTaG65rT/7EmXl+/Kv
WqXGnXEAgDqYidGHAOiQtcZXePhMft12Vyy67wSuqZ8YgDrFwpatb+t4oRsqbbxo
jXZjFW8Pb9r0Cd31kR/VYEvI4o7V6LUbgDUXLQWIxheAZwFCHvF6MwwVeI8LVpJz
eyshV5dZ49AFug+xuK2YdABUZ8Fi4dw6horYSSeRpC+BNjldQ+jSkPqnbO7mabIM
8d+gk+P/0WSSUl7vm4RhvjG4iLaAB/woyPxK6iqubAvFhN5vLD1WLz0CTTMAB64c
uRVL5ci3SYvByHdZ9t5VUJMocW5vvGdLm4LCUg/ACLRrGs1zeevsBr7Lo9JNGXPh
arce5NYoEwnlEp2CPmCfHN1IDG+0EKeYniFnpvB56mUzTN4U6SSE/eANQEDIY6u4
ESrUk7SQ0fK1wQrgFHiJWSKgVtmUyv5uuoE0xkokwFuLgcMDHWKRdGf7vtFLlU7A
0OvcDyGNztrGBTzyYFXATRPwvkVSJLwaaA/mYCxV7zvRDvhqdqxvKx6UGRII9vzW
5LgjpaIMjAV6vRtAHKY3jNF+ivb2oJ8r8vE+M1m6hN2Gogkcv+jz2r9PKtebgHFw
SLtcUAPzQPuEKzyDP/Rt71h75kpEeTCrpvPIkOiXmw0TmV+N9ZrXCu2pg6EUqPe4
UnO8Lfjqw65ghZiZn9nLpXMhZ0nD0CjmV9aw/j1AoofvwKJwRj3nVZNv6hTC3Ij2
J/ALxbNwEU1hBzTmjDFMUO8IEQXrtSX2sJCCKcpUO/Kzk2ChQI84DqVFG0TPJFSP
H9jsYTJAPR2504Vu0/AGhanpMfHSX9n5ZaWlbVB5SItqUEz9bdnZnE51VP/OtINS
2nxKRWGi+VF3sGXQTbqPWXm+Q0ZJFzq/+sgyoDMnVe9capZu4mBDtp883VOJom/2
iiFv4e3eYIJCd0Id8cbFp4z7A6e95MJsm89LDyjsggZyc1k3lPUZ3txNPDoM+Wgl
xMMhpRy9ZqwUWl5EQLJSp4eKbCtBvciZ6RTAiGsA5qPM8sEYiVH8qSMNNrfmJ+Q0
CFrery8Wv24+Y31vq3Ok2Ic48LpAYghstsDoaIzadZiUYQGom7KZBUsFK1E2B8n4
YtPPe+OIl8YzpYpKBQLSZzWfdfg/GxIL+dOYUEsjO3S+rGLBCaSftrw9iS/4ONpG
8zLg2AM=
=en/X
-----END PGP MESSAGE-----
